X: 10
T: Rakish Paddy
R: reel
M: 4/4
L: 1/8
K: Ador
(3Bcd|:cA dB cA A2|cAAG EG G2|Ad d^c de (3gfe | dcAG FGAB|
cA (3dcB cA (3dcB |cAAA cAGE|DEFG AB (3gfe|[1dcAG (3FGA (3Bcd:|[2dcAG (3FGA D2|
|:eg g2 ag g2|eg g2 ed (3Bcd|ea a2 ba ag|ea ag (3efg (3gfe|
ge e2 ee (3gfe|f3e defg|af (3gfe fde^c|[1 dcAG (3FGA D2 :| [2 dcAG (3FGA (3Bcd|


Tune 86	Setting 12602

